logos/upwork.svg

<?xml version="1.0" encoding="UTF-8" standalone="no"?>
<svg width="512px" height="153px" viewBox="0 0 512 153" version="1.1" xmlns="http://www.w3.org/2000/svg" xmlns:xlink="http://www.w3.org/1999/xlink" preserveAspectRatio="xMidYMid">
	<g>
		<path d="M140.106589,96.6278184 C131.785652,96.6278184 123.989458,93.1045388 116.905417,87.3698389 L118.629575,79.2737921 L118.704539,78.9739385 C120.241288,70.3531479 125.113909,55.8852123 140.106589,55.8852123 C151.351098,55.8852123 160.496633,65.0307467 160.496633,76.2752562 C160.459151,87.482284 151.313616,96.6278184 140.106589,96.6278184 L140.106589,96.6278184 Z M140.106589,35.2327965 C120.953441,35.2327965 106.110688,47.6767204 100.076135,68.1417277 C90.8556369,54.310981 83.884041,37.7065886 79.7985359,23.7259151 L59.1836018,23.7259151 L59.1836018,77.3622255 C59.1836018,87.9320644 50.5628111,96.5528551 39.9929722,96.5528551 C29.4231332,96.5528551 20.8023426,87.9320644 20.8023426,77.3622255 L20.8023426,23.7259151 L0.187408492,23.7259151 L0.187408492,77.3622255 C0.112445095,99.3265007 17.9912152,117.355198 39.9554905,117.355198 C61.9197657,117.355198 79.7985359,99.3265007 79.7985359,77.3622255 L79.7985359,68.3666179 C83.8090776,76.7250366 88.7191801,85.1584187 94.6787701,92.6547584 L82.0474378,152.025769 L103.149634,152.025769 L112.295168,108.959297 C120.316252,114.09429 129.53675,117.317716 140.106589,117.317716 C162.708053,117.317716 181.111567,98.801757 181.111567,76.2002928 C181.111567,53.6363104 162.708053,35.2327965 140.106589,35.2327965 L140.106589,35.2327965 Z" fill="#6FDA44"></path>
		<path d="M244.043338,37.5566618 L257.349341,91.1929722 L272.004685,37.5566618 L289.471157,37.5566618 L266.944656,115.068814 L249.478184,115.068814 L235.647438,61.0951684 L221.854173,115.031332 L204.387701,115.031332 L181.861201,37.5191801 L199.327672,37.5191801 L213.983016,91.1554905 L227.289019,37.5191801 L244.043338,37.5191801 L244.043338,37.5566618 Z M331.26325,35.2327965 C308.586823,35.2327965 290.220791,53.6363104 290.220791,76.2752562 C290.220791,98.9516837 308.624305,117.317716 331.26325,117.317716 C353.939678,117.317716 372.343192,98.9516837 372.343192,76.2752562 C372.343192,53.5988287 353.939678,35.2327965 331.26325,35.2327965 Z M331.26325,100.450952 C317.919766,100.450952 307.125037,89.6562225 307.125037,76.3127379 C307.125037,62.9692533 317.957247,52.1745242 331.26325,52.1745242 C344.606735,52.1745242 355.401464,62.9692533 355.401464,76.3127379 C355.401464,89.6187408 344.606735,100.450952 331.26325,100.450952 Z M422.231332,54.9106881 C410.499561,54.9106881 401.016691,64.4310395 401.016691,76.1253294 L401.016691,115.031332 L383.437775,115.031332 L383.437775,37.5566618 L401.016691,37.5566618 L401.016691,49.4758419 C401.016691,49.4758419 408.513031,37.5191801 423.918009,37.5191801 L429.315373,37.5191801 L429.315373,54.9106881 L422.231332,54.9106881 Z M481.227526,73.2767204 C493.708931,66.2301611 502.179795,52.8491947 502.179795,37.5191801 L484.600878,37.5191801 C484.600878,50.450366 474.106003,60.9452416 461.174817,60.9452416 L458.81347,60.9452416 L458.81347,0.149926794 L441.234553,0.149926794 L441.234553,115.031332 L458.81347,115.031332 L458.81347,78.5241581 L460.912445,78.5241581 C462.636603,78.5241581 464.885505,79.6486091 465.897511,81.0354319 L490.860322,115.031332 L511.925037,115.031332 L481.227526,73.2767204 Z" fill="#000000"></path>
	</g>
</svg>

<svg width="512" height="153" xmlns="http://www.w3.org/2000/svg" preserveAspectRatio="xMidYMid">
	<path d="M140.107 96.628c-8.321 0-16.118-3.523-23.202-9.258l1.725-8.096.075-.3c1.536-8.62 6.409-23.089 21.402-23.089 11.244 0 20.39 9.146 20.39 20.39-.038 11.207-9.183 20.353-20.39 20.353Zm0-61.395c-19.154 0-33.996 12.444-40.03 32.909-9.221-13.831-16.193-30.435-20.278-44.416H59.184v53.636c0 10.57-8.621 19.19-19.191 19.19-10.57 0-19.19-8.62-19.19-19.19V23.726H.186v53.636c-.075 21.965 17.804 39.993 39.768 39.993 21.965 0 39.844-18.028 39.844-39.993v-8.995c4.01 8.358 8.92 16.791 14.88 24.288l-12.632 59.37h21.103l9.145-43.066c8.021 5.135 17.242 8.359 27.812 8.359 22.601 0 41.005-18.516 41.005-41.118 0-22.564-18.404-40.967-41.005-40.967Z" fill="#6FDA44"/>
	<path d="m244.043 37.557 13.306 53.636 14.656-53.636h17.466l-22.526 77.512h-17.467l-13.83-53.974-13.794 53.936h-17.466L181.86 37.52h17.467l14.655 53.636 13.306-53.636h16.754v.038Zm87.22-2.324c-22.676 0-41.042 18.403-41.042 41.042 0 22.677 18.403 41.043 41.042 41.043 22.677 0 41.08-18.366 41.08-41.043 0-22.676-18.403-41.042-41.08-41.042Zm0 65.218c-13.343 0-24.138-10.795-24.138-24.138 0-13.344 10.832-24.138 24.138-24.138 13.344 0 24.138 10.794 24.138 24.138 0 13.306-10.794 24.138-24.138 24.138Zm90.968-45.54c-11.731 0-21.214 9.52-21.214 21.214v38.906h-17.58V37.557h17.58v11.919s7.496-11.957 22.901-11.957h5.397v17.392h-7.084Zm58.997 18.366c12.48-7.047 20.952-20.428 20.952-35.758H484.6c0 12.931-10.494 23.426-23.425 23.426h-2.362V.15h-17.578V115.03h17.578V78.524h2.1c1.724 0 3.973 1.125 4.985 2.511l24.962 33.996h21.065l-30.697-41.754Z"/>
</svg>
